**kern	**kern	**dynam
*part1	*part1	*part1
*staff2	*staff1	*
*I"Piano	*	*
*clefF4	*clefG2	*
*k[f#]	*k[f#]	*
*M2/4	*M2/4	*
=1	=1	=1
8D	(4ee	mf
4c 4e	.	.
.	(4f#) 4ff#	.
8c 8d	.	.
=	=	=
8D	8gL) 8gg	.
4B 4d	16r	.
.	(16aK	.
.	8.b)	.
8B 8d	.	.
.	(16ccJk	.
=	=	=
8D	(4dd)	.
4d 4fn	.	.
.	4g#X) 4gg#X	.
8d 8e	.	.
=	=	=
8D	8aL 8aa	.
4c 4e	16r	.
.	(16bK	.
.	8.cc)	.
8c 8e	.	.
.	(16ddJk	.
=	=	=
8D	4ee)	<
*clefG2	*	*
4d^ 4a	.	.
.	(4ff# 4ccc	.
8d 8a	.	.
=	=	=
8G	8ggL) 8bb	[ >
4d	16r	.
.	(16ddK	.
.	8.b	.
8d	.	.
.	16gJk)	.
*clefF4	*	*
=	=	=
8D	8ee	.
4d	8r	]
.	(4c 4f#	.
8d	.	.
=	=	=
*-	*-	*-
!!!system-decoration: {(s1,s2)}
